X:1
T:Glory to Thee, my God, this night
T:He shall defend thee under His wings
T: #10 fra Hymns Ancient and Modern 
T:Tallis
%%score [ 1 2 3 4 ]
L:1/8
M:4/2
K:G
V:1 treble nm="Soprano"
V:2 treble nm="Alto"
V:3 treble-8 nm="Tenor"
V:4 bass nm="Bass"
V:1
 G4 | G4 F4 G4 G4 | A4 A4 !fermata!B4 || G4 | c4 c4 B4 B4 | A4 A4 !fermata!G4 || d4 | c4 A4 B4 B4 | %8
w: Glo-|ry to Thee, my|God, this night|For|all the bles- sings|of the light;|Keep|me, O keep me,|
 A4 A4 !fermata!G4 || D4 | E4 F4 G4 B4 | A4 A4 !fermata!G4 :| G8 G8 |] %13
w: King of Kings,|Un-|der Thine own Al-|might- y wings.|A- men.|
V:2
 D4 | D4 D4 B,4 D4 | E4 D4 !fermata!D4 || G4 | E4 F4 G4 D4 | E4 D4 !fermata!D4 || G4 | %7
w: Glo-|ry to Thee, my|God, this night|For|all the bles- sings|of the light;|Keep|
 E4 D4 D4 D4 | E4 F4 !fermata!G4 || G,4 | E4 D4 B,6 D2 | C4 A,4 !fermata!B,4 :| C8 B,8 |] %13
w: me, O keep me,|King of Kings,|Un-|der Thine own Al-|might- y wings.|A- men.|
V:3
 B4 | A4 A4 G4 G4 | G4 F4 !fermata!G4 || G4 | A4 A4 B4 G4 | c4 c4 !fermata!B4 || B4 | A4 A4 G4 d4 | %8
w: Glo-|ry to Thee, my|God, this night|For|all the bles- sings|of the light;|Keep|me, O keep me,|
 c4 A4 !fermata!B4 || B4 | A4 A4 G4 D4 | E4 F4 !fermata!G4 :| E8 D8 |] %13
w: King of Kings,|Un-|der Thine own Al-|might- y wings.|A- men.|
V:4
 G,,4 | D,4 D,4 G,,4 B,,4 | C,4 D,4 !fermata!G,,4 || B,,4 | A,,4 A,,4 G,,4 G,4 | %5
w: Glo-|ry to Thee, my|God, this night|For|all the bles- sings|
 G,4 F,4 !fermata!G,4 || G,4 | A,4 F,4 G,4 G,,4 | C,4 D,4 !fermata!G,,4 || B,,4 | %10
w: of the light;|Keep|me, O keep me,|King of Kings,|Un-|
 C,4 D,4 E,4 B,,4 | C,4 D,4 !fermata!G,,4 :| C,8 G,,8 |] %13
w: der Thine own Al-|might- y wings.|A- men.|

